;START_OF_HEADER
;HEADER_VERSION:0.1
;FLAVOR:Griffin
;GENERATOR.NAME:Cura_SteamEngine
;GENERATOR.VERSION:5.6.0
;GENERATOR.BUILD_DATE:2023-11-28
;TARGET_MACHINE.NAME:Ultimaker S5
;EXTRUDER_TRAIN.0.INITIAL_TEMPERATURE:205
;EXTRUDER_TRAIN.0.MATERIAL.VOLUME_USED:2097
;EXTRUDER_TRAIN.0.MATERIAL.GUID:44a029e6-e31b-4c9e-a12f-9282e29a92ff
;EXTRUDER_TRAIN.0.NOZZLE.DIAMETER:0.4
;EXTRUDER_TRAIN.0.NOZZLE.NAME:AA 0.4
;BUILD_PLATE.INITIAL_TEMPERATURE:60
;BUILD_VOLUME.TEMPERATURE:28
;PRINT.TIME:635
;PRINT.GROUPS:1
;PRINT.SIZE.MIN.X:138.062
;PRINT.SIZE.MIN.Y:103.005
;PRINT.SIZE.MIN.Z:0.2
;PRINT.SIZE.MAX.X:191.937
;PRINT.SIZE.MAX.Y:136.994
;PRINT.SIZE.MAX.Z:5
;SLICE_UUID:20486d77-6142-4271-bbf4-95ce3a5975a5
;END_OF_HEADER
;Generated with Cura_SteamEngine 5.6.0
T0
M82 ;absolute extrusion mode

G92 E0
M190 S60
M109 S205
G280 S1
G0 Z20.001
G1 F2700 E-6.5
;LAYER_COUNT:20
;LAYER:0
M106 S255
M204 S1500
M205 X30 Y30
G1 F600 Z2.2
G0 F9000 X190.452 Y133.581 Z2.2
;TYPE:SKIRT
G1 F600 Z0.2
G1 F2700 E0
G1 X188.36 Y135.555 E0.03607
G1 X186.11 Y136.54 E0.06687
G1 X183.928 Y136.994 E0.09482
G1 X145.654 Y136.892 E0.57479
G1 X144.143 Y136.624 E0.59404
G1 X142.417 Y135.923 E0.6174
G1 X140.708 Y134.795 E0.64308
G1 X139.107 Y132.932 E0.67388
G1 X138.062 Y130.305 E0.70934
G1 X138.063 Y109.985 E0.96416
G1 X138.97 Y107.357 E0.99902
G1 X139.547 Y106.418 E1.01284
G1 X141.639 Y104.444 E1.04891
G1 X143.889 Y103.459 E1.07971
G1 X146.071 Y103.005 E1.10766
G1 X184.345 Y103.107 E1.58763
G1 X185.856 Y103.375 E1.60688
G1 X187.582 Y104.076 E1.63024
G1 X189.291 Y105.204 E1.65592
G1 X190.892 Y107.067 E1.68672
G1 X191.937 Y109.694 E1.72218
G1 X191.936 Y130.014 E1.977
G1 X191.029 Y132.642 E2.01186
G1 X190.452 Y133.581 E2.02568
G0 F9000 X190.14 Y133.325
G1 F2700 X188.134 Y135.218 E2.06027
G1 X185.992 Y136.156 E2.08959
G1 X183.886 Y136.594 E2.11657
G1 X145.724 Y136.498 E2.59514
G1 X144.256 Y136.238 E2.61383
G1 X142.602 Y135.566 E2.63622
G1 X140.975 Y134.492 E2.66067
G1 X139.455 Y132.723 E2.68992
G1 X138.462 Y130.227 E2.7236
G1 X138.463 Y110.051 E2.97662
G1 X139.333 Y107.53 E3.01006
G1 X139.859 Y106.674 E3.02266
G1 X141.865 Y104.781 E3.05725
G1 X144.007 Y103.843 E3.08657
G1 X146.113 Y103.405 E3.11355
G1 X184.275 Y103.501 E3.59212
G1 X185.743 Y103.761 E3.61081
G1 X187.397 Y104.433 E3.6332
G1 X189.024 Y105.507 E3.65765
G1 X190.544 Y107.276 E3.6869
G1 X191.537 Y109.772 E3.72058
G1 X191.536 Y129.948 E3.9736
G1 X190.666 Y132.469 E4.00704
G1 X190.14 Y133.325 E4.01964
G0 F9000 X189.828 Y133.069
G1 F2700 X187.908 Y134.881 E4.05275
G1 X185.875 Y135.771 E4.08058
G1 X183.843 Y136.194 E4.10661
G1 X145.794 Y136.104 E4.58376
G1 X144.369 Y135.852 E4.6019
G1 X142.787 Y135.209 E4.62332
G1 X141.242 Y134.189 E4.64653
G1 X139.803 Y132.514 E4.67423
G1 X138.862 Y130.149 E4.70615
G1 X138.863 Y110.117 E4.95735
G1 X139.696 Y107.703 E4.98938
G1 X140.171 Y106.93 E5.00076
G1 X142.091 Y105.118 E5.03386
G1 X144.124 Y104.228 E5.06169
G1 X146.156 Y103.805 E5.08772
G1 X184.205 Y103.895 E5.56487
G1 X185.63 Y104.147 E5.58302
G1 X187.212 Y104.79 E5.60443
G1 X188.757 Y105.81 E5.62765
G1 X190.196 Y107.485 E5.65534
G1 X191.137 Y109.85 E5.68726
G1 X191.136 Y129.882 E5.93847
G1 X190.303 Y132.296 E5.97049
G1 X189.828 Y133.069 E5.98187
G0 F9000 X189.516 Y132.813
G1 F2700 X187.682 Y134.544 E6.0135
G1 X185.757 Y135.387 E6.03985
G1 X183.801 Y135.794 E6.06491
G1 X145.864 Y135.71 E6.54065
G1 X144.482 Y135.466 E6.55825
G1 X142.972 Y134.852 E6.57869
G1 X141.509 Y133.886 E6.60068
G1 X140.151 Y132.305 E6.62681
G1 X139.262 Y130.071 E6.65696
G1 X139.263 Y110.184 E6.90635
G1 X140.06 Y107.875 E6.93699
G1 X140.483 Y107.186 E6.94713
G1 X142.317 Y105.455 E6.97875
G1 X144.242 Y104.612 E7.0051
G1 X146.198 Y104.205 E7.03016
G1 X184.135 Y104.289 E7.5059
G1 X185.517 Y104.533 E7.5235
G1 X187.027 Y105.147 E7.54394
G1 X188.49 Y106.113 E7.56593
G1 X189.848 Y107.694 E7.59207
G1 X190.737 Y109.928 E7.62222
G1 X190.736 Y129.815 E7.87161
G1 X189.939 Y132.124 E7.90224
G1 X189.516 Y132.813 E7.91238
G0 F9000 X189.204 Y132.557
G1 F2700 X187.456 Y134.207 E7.94252
G1 X185.64 Y135.002 E7.96738
G1 X183.758 Y135.394 E7.99149
G1 X145.934 Y135.316 E8.46582
G1 X144.591 Y135.079 E8.48292
G1 X143.161 Y134.497 E8.50228
G1 X141.776 Y133.583 E8.52309
G1 X140.499 Y132.096 E8.54767
G1 X139.662 Y129.993 E8.57606
G1 X139.663 Y110.251 E8.82363
G1 X140.438 Y108.006 E8.85341
G1 X140.795 Y107.442 E8.86178
G1 X142.543 Y105.792 E8.89193
G1 X144.359 Y104.997 E8.91679
G1 X146.241 Y104.605 E8.94089
G1 X184.065 Y104.683 E9.41522
G1 X185.408 Y104.92 E9.43232
G1 X186.838 Y105.502 E9.45168
G1 X188.223 Y106.416 E9.47249
G1 X189.5 Y107.903 E9.49707
G1 X190.337 Y110.006 E9.52546
G1 X190.336 Y129.748 E9.77303
G1 X189.561 Y131.993 E9.80281
G1 X189.204 Y132.557 E9.81118
G0 F9000 X188.93 Y132.266
G1 F2700 X187.232 Y133.868 E9.84046
G1 X185.521 Y134.618 E9.86389
G1 X183.715 Y134.994 E9.88702
G1 X146.003 Y134.922 E10.35994
G1 X144.705 Y134.693 E10.37647
G1 X143.346 Y134.14 E10.39487
G1 X142.043 Y133.28 E10.41445
G1 X140.847 Y131.887 E10.43747
G1 X140.062 Y129.915 E10.46409
G1 X140.063 Y110.318 E10.70984
G1 X140.816 Y108.137 E10.73878
G1 X141.069 Y107.733 E10.74476
G1 X142.767 Y106.131 E10.77403
G1 X144.478 Y105.381 E10.79746
G1 X146.284 Y105.005 E10.82059
G1 X183.996 Y105.077 E11.29352
G1 X185.294 Y105.306 E11.31004
G1 X186.653 Y105.859 E11.32844
G1 X187.956 Y106.719 E11.34802
G1 X189.152 Y108.112 E11.37105
G1 X189.937 Y110.084 E11.39766
G1 X189.936 Y129.681 E11.64342
G1 X189.183 Y131.862 E11.67235
G1 X188.93 Y132.266 E11.67833
G0 F9000 X188.655 Y131.975
G1 F2700 X187.006 Y133.531 E11.70676
G1 X185.403 Y134.233 E11.72871
G1 X183.672 Y134.594 E11.75088
G1 X146.072 Y134.528 E12.2224
G1 X144.819 Y134.307 E12.23835
G1 X143.533 Y133.784 E12.25576
G1 X142.309 Y132.975 E12.27416
G1 X141.195 Y131.678 E12.2956
G1 X140.462 Y129.837 E12.32045
G1 X140.463 Y110.384 E12.5644
G1 X141.18 Y108.306 E12.59197
G1 X141.344 Y108.024 E12.59606
G1 X142.993 Y106.468 E12.62449
G1 X144.596 Y105.766 E12.64644
G1 X146.327 Y105.405 E12.66861
G1 X183.927 Y105.471 E13.14013
G1 X185.18 Y105.692 E13.15609
G1 X186.466 Y106.215 E13.17349
G1 X187.69 Y107.024 E13.19189
G1 X188.804 Y108.321 E13.21333
G1 X189.537 Y110.162 E13.23818
G1 X189.536 Y129.615 E13.48213
G1 X188.819 Y131.693 E13.5097
G1 X188.655 Y131.975 E13.51379
G0 F9000 X188.338 Y131.724
G1 F2700 X186.782 Y133.192 E13.54062
G1 X185.283 Y133.849 E13.56114
G1 X183.629 Y134.194 E13.58233
G1 X146.141 Y134.134 E14.05244
G1 X144.933 Y133.921 E14.06782
G1 X143.72 Y133.428 E14.08424
G1 X142.575 Y132.671 E14.10146
G1 X141.543 Y131.469 E14.12132
G1 X140.862 Y129.759 E14.14441
G1 X140.863 Y110.45 E14.38655
G1 X141.558 Y108.436 E14.41327
G1 X141.661 Y108.275 E14.41566
G1 X143.217 Y106.807 E14.44249
G1 X144.716 Y106.15 E14.46301
G1 X146.37 Y105.805 E14.4842
G1 X183.858 Y105.865 E14.95432
G1 X185.066 Y106.078 E14.9697
G1 X186.279 Y106.571 E14.98612
G1 X187.424 Y107.328 E15.00333
G1 X188.456 Y108.53 E15.0232
G1 X189.137 Y110.24 E15.04628
G1 X189.136 Y129.549 E15.28842
G1 X188.441 Y131.563 E15.31514
G1 X188.338 Y131.724 E15.31754
G0 F9000 X188.063 Y131.433
G1 F2700 X186.557 Y132.854 E15.3435
G1 X185.163 Y133.465 E15.36259
G1 X183.586 Y133.794 E15.38279
G1 X146.21 Y133.74 E15.8515
G1 X145.047 Y133.535 E15.86631
G1 X143.907 Y133.072 E15.88174
G1 X142.841 Y132.367 E15.89777
G1 X141.891 Y131.26 E15.91606
G1 X141.262 Y129.681 E15.93738
G1 X141.263 Y110.516 E16.17771
G1 X141.936 Y108.566 E16.20358
G1 X143.442 Y107.145 E16.22955
G1 X144.836 Y106.534 E16.24863
G1 X146.413 Y106.205 E16.26883
G1 X183.789 Y106.259 E16.73754
G1 X184.952 Y106.464 E16.75235
G1 X186.092 Y106.927 E16.76778
G1 X187.158 Y107.632 E16.78381
G1 X188.108 Y108.739 E16.8021
G1 X188.737 Y110.318 E16.82342
G1 X188.736 Y129.483 E17.06375
G1 X188.063 Y131.433 E17.08962
G0 F9000 X187.718 Y131.208
G1 F2700 X186.332 Y132.516 E17.11352
G1 X185.043 Y133.081 E17.13117
G1 X183.543 Y133.394 E17.15039
G1 X146.28 Y133.346 E17.61768
G1 X145.158 Y133.148 E17.63197
G1 X144.096 Y132.717 E17.64634
G1 X143.107 Y132.063 E17.66121
G1 X142.239 Y131.051 E17.67793
G1 X141.662 Y129.603 E17.69748
G1 X141.663 Y110.582 E17.93601
G1 X142.281 Y108.791 E17.95977
G1 X143.667 Y107.483 E17.98366
G1 X144.956 Y106.918 E18.00131
G1 X146.456 Y106.605 E18.02053
G1 X183.719 Y106.653 E18.48782
G1 X184.841 Y106.851 E18.50211
G1 X185.903 Y107.282 E18.51648
G1 X186.892 Y107.936 E18.53135
G1 X187.76 Y108.948 E18.54807
G1 X188.337 Y110.396 E18.56762
G1 X188.336 Y129.417 E18.80615
G1 X187.718 Y131.208 E18.82991
G0 F9000 X187.372 Y130.984
G1 F2700 X186.107 Y132.178 E18.85172
G1 X184.923 Y132.697 E18.86793
G1 X183.5 Y132.994 E18.88616
G1 X146.35 Y132.952 E19.35204
G1 X145.269 Y132.761 E19.3658
G1 X144.285 Y132.362 E19.37912
G1 X143.373 Y131.759 E19.39283
G1 X142.587 Y130.842 E19.40798
G1 X142.062 Y129.525 E19.42575
G1 X142.063 Y110.649 E19.66247
G1 X142.627 Y109.015 E19.68414
G1 X143.892 Y107.821 E19.70596
G1 X145.076 Y107.302 E19.72217
G1 X146.499 Y107.005 E19.7404
G1 X183.649 Y107.047 E20.20627
G1 X184.73 Y107.238 E20.22004
G1 X185.714 Y107.637 E20.23336
G1 X186.626 Y108.24 E20.24707
G1 X187.412 Y109.157 E20.26221
G1 X187.937 Y110.474 E20.27999
G1 X187.936 Y129.35 E20.5167
G1 X187.372 Y130.984 E20.53838
G0 F9000 X187.026 Y130.76
G1 F2700 X185.881 Y131.841 E20.55813
G1 X184.805 Y132.312 E20.57286
G1 X183.457 Y132.594 E20.59013
G1 X146.419 Y132.558 E21.0546
G1 X145.381 Y132.375 E21.06782
G1 X144.474 Y132.007 E21.08009
G1 X143.639 Y131.455 E21.09264
G1 X142.935 Y130.633 E21.10622
G1 X142.462 Y129.447 E21.12223
G1 X142.463 Y110.716 E21.35712
G1 X142.973 Y109.239 E21.37672
G1 X144.118 Y108.158 E21.39646
G1 X145.194 Y107.687 E21.41119
G1 X146.542 Y107.405 E21.42846
G1 X183.58 Y107.441 E21.89293
G1 X184.618 Y107.624 E21.90615
G1 X185.525 Y107.992 E21.91843
G1 X186.36 Y108.544 E21.93098
G1 X187.064 Y109.366 E21.94455
G1 X187.537 Y110.552 E21.96056
G1 X187.536 Y129.283 E22.19546
G1 X187.026 Y130.76 E22.21505
G0 F9000 X186.68 Y130.537
G1 F2700 X185.657 Y131.502 E22.23269
G1 X184.685 Y131.928 E22.246
G1 X183.413 Y132.194 E22.26229
G1 X146.489 Y132.164 E22.72533
G1 X145.492 Y131.988 E22.73803
G1 X144.663 Y131.652 E22.74925
G1 X143.905 Y131.151 E22.76064
G1 X143.283 Y130.424 E22.77264
G1 X142.862 Y129.369 E22.78688
G1 X142.863 Y110.783 E23.01996
G1 X143.319 Y109.462 E23.03748
G1 X144.342 Y108.497 E23.05512
G1 X145.314 Y108.071 E23.06843
G1 X146.586 Y107.805 E23.08472
G1 X183.51 Y107.835 E23.54777
G1 X184.507 Y108.011 E23.56046
G1 X185.336 Y108.347 E23.57168
G1 X186.094 Y108.848 E23.58307
G1 X186.716 Y109.575 E23.59507
G1 X187.137 Y110.63 E23.60932
G1 X187.136 Y129.216 E23.84239
G1 X186.68 Y130.537 E23.85992
G0 F9000 X186.335 Y130.312
G1 F2700 X185.432 Y131.164 E23.87549
G1 X184.565 Y131.544 E23.88736
G1 X183.369 Y131.794 E23.90268
G1 X146.559 Y131.77 E24.36429
G1 X145.603 Y131.601 E24.37646
G1 X144.852 Y131.297 E24.38662
G1 X144.171 Y130.847 E24.39686
G1 X143.629 Y130.213 E24.40732
G1 X143.262 Y129.294 E24.41973
G1 X143.263 Y110.849 E24.65104
G1 X143.664 Y109.687 E24.66645
G1 X144.567 Y108.835 E24.68202
G1 X145.434 Y108.455 E24.69389
G1 X146.63 Y108.205 E24.70921
G1 X183.44 Y108.229 E25.17083
G1 X184.396 Y108.398 E25.183
G1 X185.147 Y108.702 E25.19316
G1 X185.828 Y109.152 E25.2034
G1 X186.37 Y109.786 E25.21386
G1 X186.737 Y110.705 E25.22627
G1 X186.736 Y129.15 E25.45757
G1 X186.335 Y130.312 E25.47299
G0 F9000 X185.99 Y130.087
G1 F2700 X185.207 Y130.826 E25.48649
G1 X184.445 Y131.16 E25.49692
G1 X183.325 Y131.394 E25.51127
G1 X146.628 Y131.376 E25.97147
G1 X145.715 Y131.215 E25.98309
G1 X145.002 Y130.926 E25.99274
G1 X144.439 Y130.545 E26.00127
G1 X143.975 Y130.002 E26.01022
G1 X143.662 Y129.219 E26.0208
G1 X143.663 Y110.915 E26.25034
G1 X144.009 Y109.912 E26.26364
G1 X144.792 Y109.173 E26.27714
G1 X145.554 Y108.839 E26.28758
G1 X146.674 Y108.605 E26.30192
G1 X183.371 Y108.623 E26.76212
G1 X184.284 Y108.784 E26.77374
G1 X184.997 Y109.073 E26.78339
G1 X185.56 Y109.454 E26.79192
G1 X186.024 Y109.997 E26.80087
G1 X186.337 Y110.78 E26.81145
G1 X186.336 Y129.084 E27.04099
G1 X185.99 Y130.087 E27.05429
G0 F9000 X185.644 Y129.863
G1 F2700 X184.981 Y130.489 E27.06573
G1 X184.327 Y130.775 E27.07468
G1 X183.281 Y130.994 E27.08808
G1 X146.698 Y130.982 E27.54685
G1 X145.826 Y130.828 E27.55795
G1 X145.152 Y130.555 E27.56707
G1 X144.668 Y130.217 E27.57447
G1 X144.285 Y129.749 E27.58206
G1 X144.062 Y129.141 E27.59018
G1 X144.063 Y110.982 E27.8179
G1 X144.355 Y110.136 E27.82912
G1 X145.018 Y109.51 E27.84056
G1 X145.672 Y109.224 E27.84951
G1 X146.718 Y109.005 E27.86291
G1 X183.301 Y109.017 E28.32167
G1 X184.173 Y109.171 E28.33278
G1 X184.847 Y109.444 E28.3419
G1 X185.331 Y109.782 E28.3493
G1 X185.714 Y110.25 E28.35688
G1 X185.937 Y110.858 E28.365
G1 X185.936 Y129.017 E28.59273
G1 X185.644 Y129.863 E28.60395
G0 F9000 X185.014 Y129.357
G1 F2700 X184.583 Y129.791 E28.61162
G1 X184.163 Y129.991 E28.61745
G1 X183.193 Y130.194 E28.62988
G1 X146.767 Y130.188 E29.08668
G1 X146.081 Y130.068 E29.09541
G1 X145.538 Y129.861 E29.1027
G1 X145.14 Y129.571 E29.10887
G1 X144.927 Y129.272 E29.11348
G1 X144.862 Y129.069 E29.11615
G1 X144.863 Y111.049 E29.34213
G1 X144.985 Y110.642 E29.34745
G1 X145.416 Y110.208 E29.35512
G1 X145.836 Y110.008 E29.36096
G1 X146.806 Y109.805 E29.37339
G1 X183.232 Y109.811 E29.83018
G1 X183.918 Y109.931 E29.83892
G1 X184.461 Y110.138 E29.8462
G1 X184.859 Y110.428 E29.85238
G1 X185.072 Y110.727 E29.85698
G1 X185.137 Y110.93 E29.85965
G1 X185.136 Y128.95 E30.08563
G1 X185.014 Y129.357 E30.09096
G0 F9000 X185.298 Y129.639
G1 F2700 X184.755 Y130.152 E30.10033
G1 X184.245 Y130.383 E30.10735
G1 X183.237 Y130.594 E30.12026
G1 X146.698 Y130.582 E30.57848
G1 X145.939 Y130.442 E30.58816
G1 X145.302 Y130.184 E30.59677
G1 X144.904 Y129.894 E30.60295
G1 X144.601 Y129.504 E30.60914
G1 X144.462 Y129.141 E30.61402
G1 X144.463 Y111.049 E30.8409
G1 X144.701 Y110.36 E30.85004
G1 X145.244 Y109.847 E30.85941
G1 X145.754 Y109.616 E30.86643
G1 X146.762 Y109.405 E30.87934
G1 X183.301 Y109.417 E31.33755
G1 X184.06 Y109.557 E31.34723
G1 X184.697 Y109.815 E31.35585
G1 X185.095 Y110.105 E31.36203
G1 X185.398 Y110.495 E31.36822
G1 X185.537 Y110.858 E31.3731
G1 X185.536 Y113.48 E31.40598
G1 F2580 X185.536 Y122.079 E31.51381
G1 F2280 X185.536 Y128.95 E31.59998
G1 X185.298 Y129.639 E31.60912
G1 F2700 E25.10912
;MESH:TrabalhoFinal.stl
G0 F9000 X184.323 Y129.006
G0 X183.136 Y129.644
;TYPE:WALL-OUTER
G1 F2700 E31.60912
G1 F1800 X184.025 Y129.458 E31.62165
G1 X184.511 Y129.131 E31.62973
G1 X184.586 Y128.917 E31.63285
G1 X184.586 Y110.996 E31.88006
G1 X184.433 Y110.78 E31.88372
G1 X183.803 Y110.468 E31.89341
G1 X183.159 Y110.357 E31.90243
G1 X146.863 Y110.356 E32.40311
G1 X145.974 Y110.541 E32.41564
G1 X145.488 Y110.868 E32.42372
G1 X145.414 Y111.082 E32.42684
G1 X145.413 Y129.003 E32.67405
G1 X145.566 Y129.219 E32.6777
G1 X146.196 Y129.531 E32.6874
G1 X146.84 Y129.643 E32.69641
G1 X183.136 Y129.644 E33.1971
G0 F9000 X183.919 Y129.481
G0 X183.095 Y129.244
;TYPE:WALL-INNER
G1 F2400 X183.892 Y129.077 E33.2068
G1 X184.084 Y128.98 E33.20936
G1 X184.186 Y128.849 E33.21134
G1 X184.186 Y122.045 E33.2924
G1 F2700 X184.186 Y111.124 E33.4225
G1 X183.989 Y110.967 E33.4255
G1 X183.125 Y110.757 E33.4361
G1 X146.904 Y110.756 E33.86761
G1 X146.107 Y110.922 E33.87731
G1 X145.915 Y111.019 E33.87987
G1 X145.814 Y111.15 E33.88184
G1 X145.813 Y128.875 E34.09301
G1 X146.01 Y129.032 E34.09601
G1 X146.874 Y129.243 E34.1066
G1 X183.095 Y129.244 E34.53812
G0 F9000 X183.062 Y128.924
;TYPE:SKIN
G1 F2700 X183.866 Y128.754 E34.54742
G1 X183.866 Y111.283 E34.74515
G1 X183.605 Y111.165 E34.74839
G1 X183.1 Y111.077 E34.75419
G1 X146.937 Y111.077 E35.16347
G1 X146.135 Y111.244 E35.17274
G1 X146.134 Y128.716 E35.37049
G1 X146.394 Y128.834 E35.37372
G1 X146.899 Y128.923 E35.37952
G1 X183.062 Y128.924 E35.7888
G1 F2700 E29.2888
G0 F9000 X183.061 Y129.223
G0 X183.866 Y128.999
G0 X184.166 Y111.823
G0 X183.665 Y111.823
G1 F2700 E35.7888
G1 X183.13 Y111.288 E35.79737
G0 F9000 X182.553 Y111.276
G1 F2700 X183.665 Y112.388 E35.81516
G0 F9000 X183.665 Y112.954
G1 F2700 X181.987 Y111.276 E35.84202
G0 F9000 X181.421 Y111.276
