;START_OF_HEADER
;HEADER_VERSION:0.1
;FLAVOR:Griffin
;GENERATOR.NAME:Cura_SteamEngine
;GENERATOR.VERSION:5.6.0
;GENERATOR.BUILD_DATE:2023-11-28
;TARGET_MACHINE.NAME:Ultimaker S5
;EXTRUDER_TRAIN.0.INITIAL_TEMPERATURE:200
;EXTRUDER_TRAIN.0.MATERIAL.VOLUME_USED:133
;EXTRUDER_TRAIN.0.MATERIAL.GUID:44a029e6-e31b-4c9e-a12f-9282e29a92ff
;EXTRUDER_TRAIN.0.NOZZLE.DIAMETER:0.4
;EXTRUDER_TRAIN.0.NOZZLE.NAME:AA 0.4
;BUILD_PLATE.INITIAL_TEMPERATURE:60
;BUILD_VOLUME.TEMPERATURE:28
;PRINT.TIME:66
;PRINT.GROUPS:1
;PRINT.SIZE.MIN.X:149.934
;PRINT.SIZE.MIN.Y:110.946
;PRINT.SIZE.MIN.Z:0.2
;PRINT.SIZE.MAX.X:180.066
;PRINT.SIZE.MAX.Y:129.054
;PRINT.SIZE.MAX.Z:2.2
;SLICE_UUID:0ce48ecd-08ba-4c2a-80dc-8cad75bdeedc
;END_OF_HEADER
;Generated with Cura_SteamEngine 5.6.0
T0
M82 ;absolute extrusion mode

G92 E0
M190 S60
M109 S200
G280 S1
G0 Z20.001
G1 F2700 E-6.5
;LAYER_COUNT:5
;LAYER:0
M106 S255
M204 S1500
M205 X30 Y30
G1 F600 Z2.2
G0 F9000 X179.381 Y125.079 Z2.2
;TYPE:SKIRT
G1 F600 Z0.2
G1 F2700 E0
G1 X177.463 Y127.435 E0.0381
G1 X175.422 Y128.456 E0.06672
G1 X173.3 Y129.054 E0.09436
G1 X156.722 Y129.054 E0.30226
G1 X154.143 Y128.333 E0.33584
G1 X151.845 Y126.835 E0.37024
G1 X150.33 Y124.306 E0.40721
G1 X149.934 Y122.315 E0.43267
G1 X149.934 Y117.267 E0.49597
G1 X150.475 Y115.109 E0.52387
G1 X152.376 Y112.759 E0.56177
G1 X154.403 Y111.592 E0.59111
G1 X156.684 Y110.946 E0.62084
G1 X173.305 Y110.946 E0.82927
G1 X176.005 Y111.707 E0.86445
G1 X178.29 Y113.351 E0.89975
G1 X179.69 Y115.725 E0.93431
G1 X180.066 Y117.731 E0.9599
G1 X180.066 Y122.92 E1.02498
G1 X179.381 Y125.079 E1.05338
G0 F9000 X179.023 Y124.886
G1 F2700 X177.209 Y127.115 E1.08942
G1 X175.275 Y128.082 E1.11654
G1 X173.245 Y128.654 E1.14298
G1 X156.776 Y128.654 E1.34951
G1 X154.309 Y127.964 E1.38164
G1 X152.141 Y126.551 E1.41409
G1 X150.708 Y124.159 E1.44905
G1 X150.334 Y122.277 E1.47312
G1 X150.334 Y117.316 E1.53533
G1 X150.841 Y115.293 E1.56148
G1 X152.64 Y113.069 E1.59736
G1 X154.561 Y111.963 E1.62515
G1 X156.74 Y111.346 E1.65355
G1 X173.249 Y111.346 E1.86058
G1 X175.828 Y112.073 E1.89418
G1 X177.988 Y113.627 E1.92755
G1 X179.31 Y115.869 E1.96019
G1 X179.666 Y117.768 E1.98442
G1 X179.666 Y122.859 E2.04826
G1 X179.023 Y124.886 E2.07493
G0 F9000 X178.665 Y124.692
G1 F2700 X176.953 Y126.795 E2.10894
G1 X175.128 Y127.708 E2.13453
G1 X173.19 Y128.254 E2.15978
G1 X156.83 Y128.254 E2.36494
G1 X154.475 Y127.595 E2.39561
G1 X152.437 Y126.267 E2.42611
G1 X151.086 Y124.012 E2.45908
G1 X150.734 Y122.239 E2.48174
G1 X150.734 Y117.365 E2.54287
G1 X151.207 Y115.477 E2.56727
G1 X152.904 Y113.379 E2.60111
G1 X154.719 Y112.334 E2.62738
G1 X156.796 Y111.746 E2.65445
G1 X173.193 Y111.746 E2.86007
G1 X175.651 Y112.439 E2.8921
G1 X177.686 Y113.903 E2.92353
G1 X178.93 Y116.013 E2.95425
G1 X179.266 Y117.805 E2.97711
G1 X179.266 Y122.798 E3.03973
G1 X178.665 Y124.692 E3.06465
G0 F9000 X178.307 Y124.499
G1 F2700 X176.699 Y126.475 E3.09659
G1 X174.981 Y127.334 E3.12068
G1 X173.135 Y127.854 E3.14473
G1 X156.884 Y127.854 E3.34853
G1 X154.641 Y127.226 E3.37774
G1 X152.733 Y125.983 E3.40629
G1 X151.464 Y123.865 E3.43726
G1 X151.134 Y122.201 E3.45853
G1 X151.134 Y117.414 E3.51856
G1 X151.573 Y115.661 E3.54122
G1 X153.168 Y113.689 E3.57303
G1 X154.877 Y112.705 E3.59776
G1 X156.852 Y112.146 E3.6235
G1 X173.138 Y112.146 E3.82773
G1 X175.473 Y112.804 E3.85815
G1 X177.384 Y114.179 E3.88768
G1 X178.55 Y116.157 E3.91647
G1 X178.866 Y117.842 E3.93797
G1 X178.866 Y122.737 E3.99935
G1 X178.307 Y124.499 E4.02254
G0 F9000 X177.949 Y124.305
G1 F2700 X176.443 Y126.155 E4.05245
G1 X174.834 Y126.96 E4.07501
G1 X173.08 Y127.454 E4.09786
G1 X156.938 Y127.454 E4.30029
G1 X154.807 Y126.857 E4.32804
G1 X153.029 Y125.699 E4.35465
G1 X151.842 Y123.718 E4.38361
G1 X151.534 Y122.163 E4.40349
G1 X151.534 Y117.463 E4.46243
G1 X151.939 Y115.845 E4.48335
G1 X153.432 Y113.999 E4.51312
G1 X155.035 Y113.076 E4.53632
G1 X156.908 Y112.546 E4.56073
G1 X173.082 Y112.546 E4.76356
G1 X175.296 Y113.17 E4.7924
G1 X177.082 Y114.455 E4.81999
G1 X178.17 Y116.301 E4.84686
G1 X178.466 Y117.879 E4.867
G1 X178.466 Y122.676 E4.92715
G1 X177.949 Y124.305 E4.94859
G0 F9000 X177.591 Y124.112
G1 F2700 X176.189 Y125.835 E4.97644
G1 X174.688 Y126.585 E4.99749
G1 X173.024 Y127.054 E5.01917
G1 X156.992 Y127.054 E5.22021
G1 X154.973 Y126.488 E5.24651
G1 X153.324 Y125.414 E5.27119
G1 X152.221 Y123.572 E5.29811
G1 X151.934 Y122.125 E5.31661
G1 X151.934 Y117.512 E5.37446
G1 X152.305 Y116.029 E5.39363
G1 X153.696 Y114.309 E5.42137
G1 X155.193 Y113.447 E5.44303
G1 X156.964 Y112.946 E5.46611
G1 X173.026 Y112.946 E5.66754
G1 X175.119 Y113.536 E5.69481
G1 X176.78 Y114.731 E5.72047
G1 X177.79 Y116.445 E5.74541
G1 X178.066 Y117.916 E5.76418
G1 X178.066 Y122.615 E5.82311
G1 X177.591 Y124.112 E5.84281
G0 F9000 X177.233 Y123.918
G1 F2700 X175.933 Y125.515 E5.86863
G1 X174.541 Y126.211 E5.88815
G1 X172.969 Y126.654 E5.90863
G1 X157.047 Y126.654 E6.10829
G1 X155.139 Y126.119 E6.13314
G1 X153.62 Y125.13 E6.15587
G1 X152.599 Y123.425 E6.1808
G1 X152.334 Y122.087 E6.1979
G1 X152.334 Y117.561 E6.25466
G1 X152.671 Y116.213 E6.27208
G1 X153.96 Y114.619 E6.29779
G1 X155.351 Y113.818 E6.31792
G1 X157.02 Y113.346 E6.33967
G1 X172.97 Y113.346 E6.53969
G1 X174.942 Y113.902 E6.56538
G1 X176.478 Y115.007 E6.58911
G1 X177.41 Y116.589 E6.61214
G1 X177.666 Y117.953 E6.62954
G1 X177.666 Y122.554 E6.68724
G1 X177.233 Y123.918 E6.70519
G0 F9000 X176.875 Y123.725
G1 F2700 X175.679 Y125.195 E6.72895
G1 X174.394 Y125.837 E6.74696
G1 X172.914 Y126.254 E6.76625
G1 X157.102 Y126.254 E6.96454
G1 X155.305 Y125.75 E6.98794
G1 X153.916 Y124.846 E7.00872
G1 X152.977 Y123.278 E7.03164
G1 X152.734 Y122.049 E7.04735
G1 X152.734 Y117.61 E7.10302
G1 X153.038 Y116.395 E7.11873
G1 X154.222 Y114.93 E7.14235
G1 X155.509 Y114.189 E7.16097
G1 X157.076 Y113.746 E7.18139
G1 X172.915 Y113.746 E7.38002
G1 X174.764 Y114.267 E7.40411
G1 X176.176 Y115.283 E7.42592
G1 X177.03 Y116.733 E7.44703
G1 X177.266 Y117.99 E7.46306
G1 X177.266 Y122.493 E7.51953
G1 X176.875 Y123.725 E7.53574
G0 F9000 X176.517 Y123.531
G1 F2700 X175.423 Y124.875 E7.55748
G1 X174.247 Y125.463 E7.57396
G1 X172.859 Y125.854 E7.59205
G1 X157.157 Y125.854 E7.78896
G1 X155.471 Y125.381 E7.81092
G1 X154.212 Y124.562 E7.82975
G1 X153.355 Y123.131 E7.85067
G1 X153.134 Y122.012 E7.86497
G1 X153.134 Y117.659 E7.91956
G1 X153.405 Y116.577 E7.93355
G1 X154.485 Y115.24 E7.9551
G1 X155.665 Y114.561 E7.97217
G1 X157.132 Y114.146 E7.99129
G1 X172.859 Y114.146 E8.18851
G1 X174.587 Y114.633 E8.21103
G1 X175.874 Y115.559 E8.23091
G1 X176.65 Y116.877 E8.25009
G1 X176.866 Y118.027 E8.26476
G1 X176.866 Y122.432 E8.32001
G1 X176.517 Y123.531 E8.33447
G0 F9000 X176.159 Y123.337
G1 F2700 X175.167 Y124.555 E8.35416
G1 X174.1 Y125.089 E8.36913
G1 X172.804 Y125.454 E8.38601
G1 X157.212 Y125.454 E8.58154
G1 X155.637 Y125.012 E8.60206
G1 X154.507 Y124.277 E8.61896
G1 X153.734 Y122.986 E8.63783
G1 X153.534 Y121.974 E8.65077
G1 X153.534 Y117.708 E8.70426
G1 X153.772 Y116.759 E8.71653
G1 X154.748 Y115.551 E8.73601
G1 X155.823 Y114.932 E8.75156
G1 X157.188 Y114.546 E8.76935
G1 X172.803 Y114.546 E8.96517
G1 X174.41 Y114.999 E8.98611
G1 X175.572 Y115.835 E9.00406
G1 X176.27 Y117.021 E9.02132
G1 X176.466 Y118.064 E9.03463
G1 X176.466 Y122.371 E9.08864
G1 X176.159 Y123.337 E9.10135
G0 F9000 X175.801 Y123.142
G1 F2700 X174.911 Y124.235 E9.11902
G1 X173.954 Y124.714 E9.13244
G1 X172.748 Y125.054 E9.14816
G1 X157.267 Y125.054 E9.3423
G1 X155.803 Y124.643 E9.36136
G1 X154.802 Y123.992 E9.37634
G1 X154.113 Y122.841 E9.39316
G1 X153.934 Y121.936 E9.40473
G1 X153.934 Y117.757 E9.45714
G1 X154.139 Y116.941 E9.46769
G1 X155.011 Y115.861 E9.48509
G1 X155.979 Y115.304 E9.4991
G1 X157.244 Y114.946 E9.51559
G1 X172.747 Y114.946 E9.71
G1 X174.233 Y115.365 E9.72936
G1 X175.27 Y116.111 E9.74538
G1 X175.89 Y117.165 E9.76072
G1 X176.066 Y118.101 E9.77266
G1 X176.066 Y122.31 E9.82544
G1 X175.801 Y123.142 E9.83639
G0 F9000 X175.442 Y122.95
G1 F2700 X174.657 Y123.915 E9.85199
G1 X173.808 Y124.339 E9.86389
G1 X172.692 Y124.654 E9.87843
G1 X157.322 Y124.654 E10.07118
G1 X155.969 Y124.274 E10.0888
G1 X155.097 Y123.707 E10.10185
G1 X154.491 Y122.695 E10.11664
G1 X154.334 Y121.9 E10.1268
G1 X154.334 Y117.757 E10.17876
G1 X154.505 Y117.124 E10.18698
G1 X155.274 Y116.171 E10.20233
G1 X156.135 Y115.676 E10.21479
G1 X157.3 Y115.346 E10.22997
G1 X172.691 Y115.346 E10.42298
G1 X174.056 Y115.731 E10.44077
G1 X174.968 Y116.387 E10.45486
G1 X175.51 Y117.309 E10.46827
G1 X175.666 Y118.138 E10.47885
G1 X175.666 Y122.248 E10.53039
G1 X175.442 Y122.95 E10.53963
G0 F9000 X175.132 Y122.697
G1 F2700 X174.401 Y123.595 E10.55415
G1 X173.662 Y123.964 E10.56451
G1 X172.636 Y124.254 E10.57788
G1 X157.377 Y124.254 E10.76923
G1 X156.135 Y123.905 E10.78541
G1 X155.392 Y123.422 E10.79652
G1 X154.87 Y122.55 E10.80927
G1 X154.734 Y121.862 E10.81806
G1 X154.734 Y117.757 E10.86954
G1 X154.869 Y117.309 E10.87541
G1 X155.537 Y116.481 E10.88875
G1 X156.291 Y116.048 E10.89965
G1 X157.356 Y115.746 E10.91353
G1 X172.635 Y115.746 E11.10514
G1 X173.879 Y116.097 E11.12135
G1 X174.666 Y116.663 E11.1335
G1 X175.131 Y117.454 E11.14501
G1 X175.266 Y118.138 E11.15375
G1 X175.266 Y122.248 E11.2053
G1 X175.132 Y122.697 E11.21117
G0 F9000 X174.822 Y122.444
G1 F2700 X174.145 Y123.275 E11.22461
G1 X173.553 Y123.579 E11.23296
G1 X172.58 Y123.854 E11.24564
G1 X157.432 Y123.854 E11.4356
G1 X156.304 Y123.537 E11.45029
G1 X155.686 Y123.136 E11.45953
G1 X155.249 Y122.405 E11.47021
G1 X155.134 Y121.862 E11.47717
G1 X155.134 Y117.757 E11.52865
G1 X155.18 Y117.56 E11.53119
G1 X155.8 Y116.791 E11.54358
G1 X156.447 Y116.42 E11.55293
G1 X157.412 Y116.146 E11.56551
G1 X172.579 Y116.146 E11.75571
G1 X173.702 Y116.463 E11.77034
G1 X174.364 Y116.939 E11.78057
G1 X174.753 Y117.6 E11.79018
G1 X174.866 Y118.138 E11.79708
G1 X174.866 Y122.248 E11.84862
G1 X174.822 Y122.444 E11.85114
G0 F9000 X174.466 Y122.248
G1 F2700 X173.889 Y122.957 E11.8626
G1 X173.444 Y123.194 E11.86892
G1 X172.524 Y123.454 E11.88091
G1 X157.487 Y123.454 E12.06948
G1 X156.412 Y123.152 E12.08348
G1 X155.981 Y122.851 E12.09008
G1 X155.639 Y122.314 E12.09806
G1 X155.534 Y121.862 E12.10388
G1 X155.534 Y117.757 E12.15536
G1 X156.063 Y117.101 E12.16593
G1 X156.556 Y116.805 E12.17314
G1 X157.468 Y116.546 E12.18503
G1 X172.523 Y116.546 E12.37382
G1 X173.593 Y116.848 E12.38776
G1 X174.025 Y117.152 E12.39439
G1 X174.363 Y117.689 E12.40235
G1 X174.466 Y118.138 E12.40812
G1 X174.466 Y122.248 E12.45966
G0 F9000 X174.066 Y122.123
G1 F2700 X173.63 Y122.642 E12.46816
G1 X173.335 Y122.809 E12.47242
G1 X172.468 Y123.054 E12.48371
G1 X157.542 Y123.054 E12.67089
G1 X156.52 Y122.767 E12.6842
G1 X156.31 Y122.624 E12.68739
G1 X156.026 Y122.213 E12.69365
G1 X155.934 Y121.862 E12.6982
G1 X155.934 Y117.88 E12.74814
G1 X156.37 Y117.357 E12.75668
G1 X156.665 Y117.19 E12.76093
G1 X157.524 Y116.946 E12.77213
G1 X172.467 Y116.946 E12.95952
G1 X173.484 Y117.233 E12.97277
G1 X173.695 Y117.377 E12.97597
G1 X173.976 Y117.789 E12.98223
G1 X174.066 Y118.138 E12.98675
G1 X174.066 Y122.123 E13.03672
G0 F9000 X173.266 Y121.871
G1 F2700 X173.117 Y122.039 E13.03954
G1 X172.356 Y122.254 E13.04945
G1 X157.651 Y122.254 E13.23386
G1 X156.852 Y122.03 E13.24427
G1 X156.734 Y121.862 E13.24684
G1 X156.734 Y118.128 E13.29367
G1 X156.883 Y117.96 E13.29648
G1 X157.636 Y117.746 E13.3063
G1 X172.355 Y117.746 E13.49088
G1 X173.149 Y117.97 E13.50123
G1 X173.266 Y118.138 E13.50379
G1 X173.266 Y121.871 E13.55061
G0 F9000 X173.666 Y121.996
G1 F2700 X173.416 Y122.304 E13.55558
G1 X173.226 Y122.424 E13.5584
G1 X172.412 Y122.654 E13.56901
G1 X157.597 Y122.654 E13.75479
G1 X156.628 Y122.382 E13.76741
G1 X156.407 Y122.092 E13.77199
G1 X156.334 Y121.862 E13.77501
G1 X156.334 Y118.005 E13.82338
G1 X156.584 Y117.695 E13.82838
G1 X156.774 Y117.575 E13.83119
G1 X157.58 Y117.346 E13.8417
G1 X161.675 Y117.346 E13.89305
G1 F2580 X170.275 Y117.346 E14.0009
G1 F2280 X172.411 Y117.346 E14.02769
G1 X173.375 Y117.618 E14.04025
G1 X173.594 Y117.909 E14.04482
G1 X173.666 Y118.138 E14.04783
G1 X173.666 Y121.996 E14.09621
G1 F2700 E7.59621
;MESH:TrabalhoFinal.stl
G0 F9000 X172.299 Y121.49
G0 X157.675 Y121.709
;TYPE:WALL-OUTER
G1 F2700 E14.09621
G1 F1800 X172.328 Y121.709 E14.29834
G1 X172.721 Y121.602 E14.30395
G1 X172.721 Y118.388 E14.34829
G1 X172.33 Y118.291 E14.35385
G1 X157.664 Y118.291 E14.55616
G1 X157.279 Y118.397 E14.56166
G1 X157.279 Y121.612 E14.60601
G1 X157.675 Y121.709 E14.61164
G0 F9000 X158.475 Y121.709
G0 X158.475 Y121.409
G0 X172.321 Y121.309
;TYPE:WALL-INNER
G1 F2400 X172.321 Y118.691 E14.64283
G1 X166.939 Y118.691 E14.70694
G1 F2700 X157.679 Y118.691 E14.81726
G1 X157.679 Y121.309 E14.84845
G1 X172.321 Y121.309 E15.02289
G0 F9000 X172.001 Y120.989
;TYPE:SKIN
G1 F2700 X172.001 Y119.011 E15.04527
G1 X157.999 Y119.011 E15.20374
G1 X157.999 Y120.989 E15.22613
G1 X172.001 Y120.989 E15.3846
G0 F9000 X172.301 Y120.989
G0 X172.301 Y119.757
G0 X171.8 Y119.757
G1 F2700 X171.254 Y119.211 E15.39334
G0 F9000 X170.688 Y119.211
G1 F2700 X171.8 Y120.322 E15.41113
G0 F9000 X171.701 Y120.789
G1 F2700 X170.122 Y119.211 E15.43639
G0 F9000 X169.557 Y119.211
G1 F2700 X171.135 Y120.789 E15.46165
G0 F9000 X170.569 Y120.789
G1 F2700 X168.991 Y119.211 E15.48691
G0 F9000 X168.425 Y119.211
G1 F2700 X170.004 Y120.789 E15.51217
G0 F9000 X169.438 Y120.789
G1 F2700 X167.86 Y119.211 E15.53743
G0 F9000 X167.294 Y119.211
G1 F2700 X168.872 Y120.789 E15.56269
G0 F9000 X168.306 Y120.789
G1 F2700 X166.728 Y119.211 E15.58794
G0 F9000 X166.163 Y119.211
G1 F2700 X167.741 Y120.789 E15.6132
G0 F9000 X167.175 Y120.789
G1 F2700 X165.597 Y119.211 E15.63846
G0 F9000 X165.031 Y119.211
G1 F2700 X166.609 Y120.789 E15.66371
G0 F9000 X166.044 Y120.789
G1 F2700 X164.465 Y119.211 E15.68898
G0 F9000 X163.9 Y119.211
G1 F2700 X165.478 Y120.789 E15.71424
G0 F9000 X164.912 Y120.789
G1 F2700 X163.334 Y119.211 E15.73949
G0 F9000 X162.768 Y119.211
G1 F2700 X164.347 Y120.789 E15.76476
G0 F9000 X163.781 Y120.789
G1 F2700 X162.203 Y119.211 E15.79001
G0 F9000 X161.637 Y119.211
G1 F2700 X163.215 Y120.789 E15.81527
G0 F9000 X162.65 Y120.789
G1 F2700 X161.071 Y119.211 E15.84054
G0 F9000 X160.506 Y119.211
G1 F2700 X162.084 Y120.789 E15.86579
G0 F9000 X161.518 Y120.789
M104 S199.1
G1 F2700 X159.94 Y119.211 E15.89105
G0 F9000 X159.374 Y119.211
G1 F2700 X160.953 Y120.789 E15.91631
G0 F9000 X160.387 Y120.789
G1 F2700 X158.809 Y119.211 E15.94157
G0 F9000 X158.243 Y119.211
G1 F2700 X159.821 Y120.789 E15.96683
G0 F9000 X159.256 Y120.789
G1 F2700 X158.198 Y119.731 E15.98376
G0 F9000 X158.198 Y120.297
G1 F2700 X158.69 Y120.789 E15.99164
;MESH:NONMESH
G0 F600 X158.69 Y120.789 Z0.35
G0 F9000 X158.69 Y121.289
G0 X172.288 Y121.41
G0 X172.34 Y121.789
;TIME_ELAPSED:35.624336
;LAYER:1
M205 X50 Y50
;TYPE:WALL-OUTER
;MESH:TrabalhoFinal.stl
G1 F1663.4 X172.801 Y121.695 E15.99606
G1 X172.801 Y118.306 E16.02794
G1 X172.353 Y118.217 E16.03223
G1 X157.843 Y118.212 E16.1687
G1 X157.304 Y118.269 E16.1738
G1 X157.199 Y118.331 E16.17495
G1 X157.2 Y121.695 E16.20659
G1 X157.571 Y121.789 E16.21019
G1 X172.34 Y121.789 E16.34909
M204 S3500
G0 F9000 X172.801 Y121.695
G0 X172.801 Y121.365
G0 X172.401 Y121.389
;TYPE:WALL-INNER
G1 F1663.4 X172.401 Y118.617 E16.37516
G1 X167.84 Y118.616 E16.41806
G1 F1663.4 X159.174 Y118.613 E16.49957
G1 X157.6 Y118.612 E16.51437
G1 X157.6 Y121.383 E16.54043
G1 X172.401 Y121.389 E16.67964
G0 F9000 X172.081 Y121.069
;TYPE:SKIN
G1 F1663.4 X172.081 Y118.937 E16.69869
G1 X163.336 Y118.934 E16.77683
G1 F1663.4 X157.92 Y118.932 E16.82522
G1 X157.921 Y119.603 E16.83121
G1 X158.229 Y119.62 E16.83397
G1 X158.464 Y119.735 E16.83631
G1 X158.564 Y119.9 E16.83803
G1 X158.571 Y120.068 E16.83954
G1 X158.466 Y120.254 E16.84144
G1 X158.188 Y120.394 E16.84422
G1 X157.921 Y120.373 E16.84662
G1 X157.92 Y121.068 E16.85283
G1 X161.694 Y121.068 E16.88655
G1 X172.081 Y121.069 E16.97936
G0 F9000 X158.495 Y120.667
G1 F1663.4 X161.792 Y120.667 E17.00881
G1 F1663.4 X165.481 Y120.668 E17.04178
G1 F1663.4 X171.681 Y120.669 E17.09717
G1 X171.681 Y119.337 E17.10907
G1 X167.815 Y119.336 E17.14362
G1 X165.88 Y119.335 E17.16091
G1 X158.513 Y119.333 E17.22673
